;FLAVOR:Marlin
;TIME:12375
;Filament used: 9.79023m
;Layer height: 0.2
;MINX:37.416
;MINY:43.057
;MINZ:0.2
;MAXX:192.58
;MAXY:186.951
;MAXZ:3
;TARGET_MACHINE.NAME:Creality Ender-3 v2 Neo
;Generated with Cura_SteamEngine 5.10.0
M140 S60
M105
M190 S60
M104 S200
M105
M109 S200
G92 E0 ;Reset Extruder
G28 ;Home
G1 Z2.0 F3000 ;Move Z Axis up
G1 X10.1 Y20 Z0.28 F5000.0 ;Move to start position
G1 X10.1 Y200.0 Z0.28 F1500.0 E15 ;Draw the first line
G1 X10.4 Y200.0 Z0.28 F5000.0 ;Move to side a little
G1 X10.4 Y20 Z0.28 F1500.0 E30 ;Draw the second line
G92 E0 ;Reset Extruder
G1 Z2.0 F3000 ;Move Z Axis up
M82 ;absolute extrusion mode
G92 E0
G92 E0
G1 F1500 E-4
;LAYER_COUNT:15
;LAYER:0
M107
G0 F6000 X52.223 Y67.259 Z0.2
;TYPE:SKIRT
G1 F1500 E0
G1 F1200 X53.035 Y66.658 E0.0336
G1 X53.866 Y66.152 E0.06596
G1 X54.74 Y65.719 E0.0984
G1 X55.646 Y65.368 E0.13072
G1 X56.512 Y65.114 E0.16073
G1 X57.55 Y64.91 E0.19592
G1 X58.781 Y64.795 E0.23704
G1 X59.34 Y64.78 E0.25564
G1 X76.073 Y64.702 E0.81219
G1 X77.213 Y64.724 E0.85011
G1 X79.996 Y64.871 E0.9428
G1 X82.509 Y64.931 E1.02641
G1 X85 Y64.921 E1.10926
G1 X87.569 Y64.837 E1.19475
G1 X90.066 Y64.685 E1.27796
G1 X92.53 Y64.465 E1.36023
G1 X95.043 Y64.168 E1.4444
G1 X97.58 Y63.796 E1.52968
G1 X100.018 Y63.369 E1.61201
G1 X102.484 Y62.864 E1.69573
G1 X104.933 Y62.287 E1.77941
G1 X107.403 Y61.633 E1.86439
G1 X109.954 Y60.889 E1.95278
G1 X110.732 Y60.694 E1.97945
G1 X111.417 Y60.555 E2.0027
G1 X112.636 Y60.339 E2.04388
G1 X115.22 Y59.845 E2.13138
G1 X117.709 Y59.296 E2.21615
G1 X120.08 Y58.703 E2.29744
G1 X122.56 Y58.006 E2.38312
G1 X124.946 Y57.262 E2.46625
G1 X127.337 Y56.443 E2.55031
G1 X129.716 Y55.55 E2.63483
G1 X131.989 Y54.624 E2.71646
G1 X134.339 Y53.587 E2.80189
G1 X136.601 Y52.513 E2.88518
G1 X138.821 Y51.378 E2.9681
G1 X141.036 Y50.169 E3.05203
G1 X143.229 Y48.888 E3.13651
G1 X145.363 Y47.561 E3.22009
G1 X148.015 Y45.797 E3.32602
G1 X148.845 Y45.289 E3.35839
G1 X149.652 Y44.884 E3.38842
G1 X150.752 Y44.459 E3.42764
G1 X153.426 Y43.585 E3.52121
G1 X154.33 Y43.335 E3.55241
G1 X155.323 Y43.153 E3.58598
G1 X156.291 Y43.064 E3.61832
G1 X157.179 Y43.057 E3.64785
G1 X157.904 Y43.085 E3.67198
G1 X167.242 Y43.608 E3.98305
G1 X167.997 Y43.663 E4.00823
G1 X168.965 Y43.777 E4.04065
G1 X169.917 Y43.978 E4.07301
G1 X170.848 Y44.262 E4.10539
G1 X171.753 Y44.626 E4.13783
G1 X172.619 Y45.07 E4.1702
G1 X173.443 Y45.588 E4.20257
G1 X174.228 Y46.184 E4.23535
G1 X175.134 Y47.03 E4.27658
G1 X175.629 Y47.555 E4.30058
G1 X186.713 Y59.832 E4.85071
G1 X187.241 Y60.436 E4.87739
G1 X187.848 Y61.197 E4.90977
G1 X188.385 Y62.009 E4.94215
G1 X188.85 Y62.865 E4.97455
G1 X189.211 Y63.693 E5.00459
G1 X189.541 Y64.684 E5.03933
G1 X189.764 Y65.633 E5.07175
G1 X189.902 Y66.603 E5.10434
G1 X189.954 Y67.713 E5.1413
G1 X189.946 Y68.548 E5.16907
G1 X189.808 Y74.193 E5.35688
G1 X189.782 Y76.764 E5.4424
G1 X189.827 Y79.253 E5.5252
G1 X189.943 Y81.771 E5.60904
G1 X190.13 Y84.289 E5.69302
G1 X190.391 Y86.808 E5.77725
G1 X190.718 Y89.286 E5.86038
G1 X191.117 Y91.773 E5.94416
G1 X191.586 Y94.235 E6.02751
G1 X191.864 Y95.491 E6.0703
G1 X192.077 Y96.522 E6.10532
G1 X192.192 Y97.145 E6.12639
G1 X192.288 Y97.816 E6.14893
G1 X192.324 Y98.149 E6.16007
G1 X192.374 Y98.78 E6.18112
G1 X192.393 Y99.161 E6.19381
G1 X192.375 Y100.538 E6.23962
G1 X192.342 Y100.974 E6.25416
G1 X192.268 Y101.651 E6.27681
G1 X192.22 Y101.984 E6.288
G1 X192.109 Y102.627 E6.3097
G1 X191.839 Y103.929 E6.35393
G1 X191.674 Y104.673 E6.37928
G1 X191.188 Y107.185 E6.46437
G1 X190.781 Y109.655 E6.54763
G1 X190.448 Y112.109 E6.63
G1 X190.178 Y114.636 E6.71453
G1 X189.978 Y117.169 E6.79904
G1 X189.855 Y119.643 E6.88143
G1 X189.8 Y122.195 E6.96633
G1 X189.816 Y124.681 E7.04901
G1 X189.905 Y127.221 E7.13355
G1 X190.06 Y129.7 E7.21616
G1 X190.292 Y132.229 E7.30063
G1 X190.591 Y134.706 E7.38361
G1 X190.964 Y137.214 E7.46794
G1 X191.405 Y139.692 E7.55166
G1 X191.921 Y142.179 E7.63614
G1 X192.216 Y143.459 E7.67983
G1 X192.371 Y144.245 E7.70647
G1 X192.472 Y144.94 E7.72983
G1 X192.508 Y145.269 E7.74084
G1 X192.561 Y145.922 E7.76263
G1 X192.58 Y146.308 E7.77548
G1 X192.561 Y147.68 E7.82112
G1 X192.528 Y148.115 E7.83563
G1 X192.455 Y148.783 E7.85798
G1 X192.394 Y149.212 E7.87239
G1 X192.215 Y150.162 E7.90455
G1 X191.927 Y151.222 E7.94108
G1 X191.521 Y152.394 E7.98233
G1 X191.362 Y152.779 E7.99619
G1 X191.098 Y153.363 E8.0175
G1 X190.921 Y153.726 E8.03094
G1 X190.241 Y154.925 E8.07678
G1 X189.37 Y156.257 E8.12971
G1 X187.996 Y158.423 E8.21503
G1 X187.257 Y159.678 E8.26347
G1 X187.031 Y160.027 E8.2773
G1 X186.504 Y160.914 E8.31161
G1 X185.969 Y161.726 E8.34396
G1 X185.409 Y162.435 E8.37401
G1 X184.989 Y162.898 E8.3948
G1 X184.186 Y163.729 E8.43323
G1 X176.208 Y171.707 E8.80849
G1 X175.707 Y172.193 E8.83171
G1 X174.962 Y172.851 E8.86477
G1 X174.178 Y173.426 E8.89711
G1 X173.346 Y173.933 E8.92951
G1 X172.503 Y174.35 E8.96079
G1 X171.491 Y174.739 E8.99685
G1 X170.533 Y175.053 E9.03038
G1 X163.869 Y177.121 E9.26246
G1 X163.157 Y177.329 E9.28713
G1 X162.245 Y177.552 E9.31835
G1 X161.254 Y177.703 E9.3517
G1 X160.479 Y177.759 E9.37754
G1 X158.86 Y177.804 E9.43141
G1 X156.25 Y177.893 E9.51827
G1 X153.727 Y178.051 E9.60235
G1 X151.277 Y178.275 E9.68417
G1 X148.752 Y178.578 E9.76876
G1 X146.257 Y178.949 E9.85266
G1 X143.78 Y179.389 E9.93633
G1 X141.328 Y179.896 E10.01961
G1 X138.834 Y180.486 E10.10485
G1 X136.434 Y181.126 E10.18746
G1 X134.043 Y181.838 E10.27044
G1 X131.602 Y182.639 E10.35589
G1 X129.244 Y183.488 E10.43924
G1 X126.964 Y184.383 E10.52071
G1 X124.252 Y185.541 E10.61879
G1 X123.669 Y185.799 E10.63999
G1 X122.762 Y186.153 E10.67238
G1 X121.827 Y186.424 E10.70476
G1 X120.857 Y186.614 E10.73763
G1 X119.524 Y186.733 E10.78214
G1 X118.7 Y186.754 E10.80956
G1 X102.631 Y186.951 E11.34406
G1 X101.844 Y186.95 E11.37023
G1 X100.942 Y186.909 E11.40026
G1 X99.905 Y186.768 E11.43507
G1 X98.988 Y186.558 E11.46636
G1 X97.827 Y186.171 E11.50706
G1 X96.304 Y185.565 E11.56158
G1 X93.916 Y184.675 E11.64634
G1 X91.481 Y183.846 E11.7319
G1 X89.113 Y183.113 E11.81434
G1 X86.692 Y182.439 E11.89793
G1 X84.219 Y181.826 E11.98267
G1 X81.769 Y181.292 E12.06607
G1 X78.667 Y180.709 E12.17105
G1 X77.715 Y180.494 E12.20351
G1 X76.814 Y180.203 E12.235
G1 X75.493 Y179.615 E12.2831
G1 X74.58 Y179.133 E12.31743
G1 X72.258 Y177.944 E12.4042
G1 X70.005 Y176.872 E12.48719
G1 X67.667 Y175.839 E12.5722
G1 X65.344 Y174.89 E12.65566
G1 X63.002 Y174.01 E12.73887
G1 X60.623 Y173.191 E12.82256
G1 X58.214 Y172.44 E12.90648
G1 X56.149 Y171.851 E12.97791
G1 X55.193 Y171.529 E13.01146
G1 X54.301 Y171.137 E13.04386
G1 X53.447 Y170.669 E13.07625
G1 X52.696 Y170.168 E13.10628
G1 X51.698 Y169.35 E13.1492
G1 X51.078 Y168.775 E13.17732
G1 X43.24 Y161.335 E13.53676
G1 X42.611 Y160.721 E13.566
G1 X41.948 Y160.009 E13.59836
G1 X41.349 Y159.241 E13.63075
G1 X40.857 Y158.483 E13.66081
G1 X40.368 Y157.559 E13.69558
G1 X39.993 Y156.661 E13.72794
G1 X39.697 Y155.729 E13.76047
G1 X39.48 Y154.741 E13.79411
G1 X39.403 Y154.281 E13.80962
G1 X39.286 Y153.319 E13.84186
G1 X39.255 Y152.538 E13.86785
G1 X39.254 Y151.893 E13.88931
G1 X39.406 Y141.321 E14.24097
G1 X39.406 Y138.724 E14.32735
G1 X39.335 Y136.209 E14.41103
G1 X39.193 Y133.693 E14.49484
G1 X38.984 Y131.21 E14.57772
G1 X38.696 Y128.683 E14.66231
G1 X38.345 Y126.213 E14.74529
G1 X37.918 Y123.723 E14.82932
G1 X37.789 Y123.059 E14.85182
G1 X37.624 Y122.123 E14.88343
G1 X37.527 Y121.432 E14.90663
G1 X37.439 Y120.476 E14.93857
G1 X37.424 Y120.142 E14.94969
G1 X37.416 Y119.231 E14.97999
G1 X37.454 Y118.473 E15.00523
G1 X37.489 Y118.063 E15.01892
G1 X37.639 Y116.97 E15.05561
G1 X38.13 Y114.351 E15.14424
G1 X38.519 Y111.893 E15.22701
G1 X38.848 Y109.362 E15.3119
G1 X39.098 Y106.881 E15.39483
G1 X39.279 Y104.383 E15.47813
G1 X39.391 Y101.853 E15.56237
G1 X39.432 Y99.288 E15.64769
G1 X39.424 Y97.873 E15.69475
G1 X39.256 Y85.539 E16.10502
G1 X39.257 Y84.692 E16.13319
G1 X39.298 Y83.79 E16.16322
G1 X39.439 Y82.754 E16.198
G1 X39.647 Y81.838 E16.22924
G1 X39.958 Y80.88 E16.26274
G1 X40.34 Y79.983 E16.29517
G1 X40.8 Y79.124 E16.32758
G1 X41.345 Y78.296 E16.36055
G1 X42.236 Y77.212 E16.40722
G1 X42.749 Y76.675 E16.43192
G1 X50.89 Y68.499 E16.81567
G1 X51.522 Y67.882 E16.84505
G1 X52.223 Y67.259 E16.87624
G0 F6000 X52.489 Y67.558
G1 F1200 X53.244 Y66.999 E16.90748
G1 X54.044 Y66.51 E16.93867
G1 X54.885 Y66.092 E16.96991
G1 X55.759 Y65.752 E17.0011
G1 X56.625 Y65.498 E17.03111
G1 X57.587 Y65.308 E17.06373
G1 X58.792 Y65.195 E17.10398
G1 X59.342 Y65.18 E17.12228
G1 X76.066 Y65.102 E17.67853
G1 X77.192 Y65.123 E17.71599
G1 X79.986 Y65.271 E17.80905
G1 X82.501 Y65.331 E17.89272
G1 X85.013 Y65.321 E17.97627
G1 X87.582 Y65.237 E18.06176
G1 X90.093 Y65.084 E18.14543
G1 X92.576 Y64.862 E18.22835
G1 X95.101 Y64.564 E18.31291
G1 X97.638 Y64.192 E18.39819
G1 X100.096 Y63.761 E18.4812
G1 X102.564 Y63.256 E18.56498
G1 X105.035 Y62.674 E18.64942
G1 X107.505 Y62.02 E18.7344
G1 X110.051 Y61.277 E18.82261
G1 X110.811 Y61.086 E18.84868
G1 X111.487 Y60.949 E18.87162
G1 X112.706 Y60.733 E18.91279
G1 X115.306 Y60.236 E19.00084
G1 X117.795 Y59.687 E19.08561
G1 X120.177 Y59.091 E19.16728
G1 X122.679 Y58.388 E19.25372
G1 X125.065 Y57.644 E19.33684
G1 X127.467 Y56.821 E19.42129
G1 X129.857 Y55.924 E19.5062
G1 X132.15 Y54.99 E19.58855
G1 X134.5 Y53.953 E19.67398
G1 X136.773 Y52.874 E19.75767
G1 X139.013 Y51.729 E19.84134
G1 X141.228 Y50.52 E19.92527
G1 X143.44 Y49.228 E20.01047
G1 X145.574 Y47.901 E20.09405
G1 X148.224 Y46.138 E20.19992
G1 X149.024 Y45.647 E20.23114
G1 X149.831 Y45.242 E20.26117
G1 X150.876 Y44.839 E20.29842
G1 X153.533 Y43.971 E20.39139
G1 X154.437 Y43.721 E20.42258
G1 X155.36 Y43.551 E20.4538
G1 X156.294 Y43.464 E20.485
G1 X157.164 Y43.457 E20.51394
G1 X157.882 Y43.484 E20.53783
G1 X167.213 Y44.007 E20.84867
G1 X167.951 Y44.06 E20.87328
G1 X168.883 Y44.169 E20.90449
G1 X169.801 Y44.361 E20.93568
G1 X170.699 Y44.633 E20.96689
G1 X171.571 Y44.982 E20.99813
G1 X172.407 Y45.409 E21.02935
G1 X173.202 Y45.907 E21.06055
G1 X173.955 Y46.477 E21.09197
G1 X174.843 Y47.305 E21.13235
G1 X175.332 Y47.823 E21.15604
G1 X186.412 Y60.096 E21.70598
G1 X186.929 Y60.686 E21.73208
G1 X187.515 Y61.418 E21.76326
G1 X188.034 Y62.2 E21.79448
G1 X188.483 Y63.025 E21.82572
G1 X188.844 Y63.853 E21.85576
G1 X189.152 Y64.776 E21.88813
G1 X189.368 Y65.69 E21.91936
G1 X189.502 Y66.622 E21.95068
G1 X189.554 Y67.732 E21.98764
G1 X189.546 Y68.538 E22.01445
G1 X189.408 Y74.183 E22.20226
G1 X189.382 Y76.76 E22.28797
G1 X189.427 Y79.271 E22.3715
G1 X189.544 Y81.801 E22.45574
G1 X189.732 Y84.33 E22.54009
G1 X189.994 Y86.86 E22.62469
G1 X190.321 Y89.338 E22.70782
G1 X190.724 Y91.848 E22.79237
G1 X191.195 Y94.322 E22.87613
G1 X191.472 Y95.572 E22.91872
G1 X191.684 Y96.595 E22.95347
G1 X191.796 Y97.202 E22.974
G1 X191.89 Y97.859 E22.99607
G1 X191.925 Y98.181 E23.00684
G1 X191.974 Y98.8 E23.0275
G1 X191.993 Y99.181 E23.04018
G1 X191.976 Y100.508 E23.08432
G1 X191.944 Y100.931 E23.09843
G1 X191.87 Y101.608 E23.12108
G1 X191.826 Y101.916 E23.13143
G1 X191.717 Y102.546 E23.1527
G1 X191.449 Y103.842 E23.19671
G1 X191.281 Y104.597 E23.22244
G1 X190.795 Y107.109 E23.30754
G1 X190.386 Y109.59 E23.39117
G1 X190.05 Y112.067 E23.47431
G1 X189.78 Y114.594 E23.55884
G1 X189.579 Y117.137 E23.64368
G1 X189.455 Y119.623 E23.72647
G1 X189.4 Y122.186 E23.81173
G1 X189.416 Y124.695 E23.89519
G1 X189.505 Y127.235 E23.97972
G1 X189.662 Y129.737 E24.0631
G1 X189.895 Y132.277 E24.14793
G1 X190.195 Y134.765 E24.23129
G1 X190.57 Y137.284 E24.31599
G1 X191.013 Y139.773 E24.40008
G1 X191.531 Y142.269 E24.48486
G1 X191.824 Y143.536 E24.52812
G1 X191.975 Y144.302 E24.55408
G1 X192.074 Y144.984 E24.577
G1 X192.109 Y145.301 E24.58761
G1 X192.161 Y145.942 E24.609
G1 X192.18 Y146.328 E24.62186
G1 X192.162 Y147.65 E24.66583
G1 X192.13 Y148.072 E24.67991
G1 X192.059 Y148.727 E24.70182
G1 X192.001 Y149.138 E24.71562
G1 X191.829 Y150.057 E24.74672
G1 X191.549 Y151.091 E24.78235
G1 X191.151 Y152.241 E24.82283
G1 X190.997 Y152.614 E24.83625
G1 X190.738 Y153.188 E24.85719
G1 X190.561 Y153.551 E24.87062
G1 X189.906 Y154.706 E24.91479
G1 X189.035 Y156.038 E24.96772
G1 X187.651 Y158.22 E25.05366
G1 X186.921 Y159.461 E25.10155
G1 X186.695 Y159.81 E25.11538
G1 X186.17 Y160.694 E25.14957
G1 X185.655 Y161.478 E25.18077
G1 X185.095 Y162.187 E25.21082
G1 X184.701 Y162.62 E25.23029
G1 X183.898 Y163.451 E25.26873
G1 X175.929 Y171.42 E25.64357
G1 X175.428 Y171.906 E25.66678
G1 X174.725 Y172.529 E25.69802
G1 X173.97 Y173.085 E25.72921
G1 X173.169 Y173.574 E25.76042
G1 X172.326 Y173.991 E25.7917
G1 X171.367 Y174.359 E25.82587
G1 X170.414 Y174.671 E25.85922
G1 X163.757 Y176.737 E26.09105
G1 X163.062 Y176.94 E26.11513
G1 X162.15 Y177.163 E26.14636
G1 X161.225 Y177.304 E26.17748
G1 X160.468 Y177.359 E26.20273
G1 X158.846 Y177.404 E26.25669
G1 X156.236 Y177.493 E26.34355
G1 X153.702 Y177.652 E26.428
G1 X151.229 Y177.878 E26.5106
G1 X148.693 Y178.182 E26.59555
G1 X146.198 Y178.553 E26.67944
G1 X143.699 Y178.997 E26.76386
G1 X141.247 Y179.504 E26.84714
G1 X138.742 Y180.097 E26.93276
G1 X136.32 Y180.743 E27.01613
G1 X133.918 Y181.458 E27.09949
G1 X131.477 Y182.259 E27.18494
G1 X129.108 Y183.112 E27.26868
G1 X126.807 Y184.015 E27.35089
G1 X124.095 Y185.173 E27.44897
G1 X123.523 Y185.427 E27.46979
G1 X122.65 Y185.769 E27.50098
G1 X121.749 Y186.032 E27.53219
G1 X120.821 Y186.216 E27.56366
G1 X119.514 Y186.333 E27.6073
G1 X118.695 Y186.354 E27.63455
G1 X102.632 Y186.551 E28.16885
G1 X101.862 Y186.55 E28.19446
G1 X100.96 Y186.509 E28.22449
G1 X99.994 Y186.378 E28.25692
G1 X99.114 Y186.178 E28.28693
G1 X97.975 Y185.799 E28.32686
G1 X96.452 Y185.193 E28.38138
G1 X94.045 Y184.296 E28.46681
G1 X91.61 Y183.467 E28.55236
G1 X89.231 Y182.731 E28.63519
G1 X86.788 Y182.051 E28.71953
G1 X84.304 Y181.435 E28.80465
G1 X81.854 Y180.901 E28.88806
G1 X79.513 Y180.455 E28.96732
G1 X78.755 Y180.319 E28.99293
G1 X77.838 Y180.113 E29.02419
G1 X76.937 Y179.822 E29.05568
G1 X75.68 Y179.261 E29.10147
G1 X74.767 Y178.779 E29.1358
G1 X72.43 Y177.583 E29.22312
G1 X70.167 Y176.506 E29.30648
G1 X67.829 Y175.473 E29.39149
G1 X65.485 Y174.516 E29.4757
G1 X63.132 Y173.632 E29.5593
G1 X60.742 Y172.809 E29.64338
G1 X58.324 Y172.055 E29.72762
G1 X56.259 Y171.466 E29.79904
G1 X55.353 Y171.162 E29.83082
G1 X54.493 Y170.786 E29.86204
G1 X53.669 Y170.336 E29.89327
G1 X52.918 Y169.835 E29.9233
G1 X51.97 Y169.057 E29.96408
G1 X51.353 Y168.485 E29.99207
G1 X43.519 Y161.048 E30.35134
G1 X42.903 Y160.448 E30.37994
G1 X42.263 Y159.763 E30.41112
G1 X41.685 Y159.023 E30.44235
G1 X41.193 Y158.265 E30.47241
G1 X40.737 Y157.404 E30.50481
G1 X40.374 Y156.539 E30.53601
G1 X40.088 Y155.643 E30.5673
G1 X39.871 Y154.655 E30.60094
G1 X39.8 Y154.232 E30.61521
G1 X39.686 Y153.303 E30.64634
G1 X39.655 Y152.537 E30.67183
G1 X39.654 Y151.899 E30.69305
G1 X39.806 Y141.327 E31.04472
G1 X39.806 Y138.724 E31.13129
G1 X39.735 Y136.198 E31.21534
G1 X39.592 Y133.659 E31.29992
G1 X39.382 Y131.176 E31.3828
G1 X39.092 Y128.627 E31.46813
G1 X38.741 Y126.157 E31.55111
G1 X38.311 Y123.647 E31.63581
G1 X38.183 Y122.989 E31.6581
G1 X38.02 Y122.067 E31.68924
G1 X37.925 Y121.396 E31.71178
G1 X37.839 Y120.457 E31.74315
G1 X37.824 Y120.138 E31.75377
G1 X37.816 Y119.251 E31.78327
G1 X37.853 Y118.507 E31.80805
G1 X37.888 Y118.097 E31.82173
G1 X38.032 Y117.044 E31.85708
G1 X38.523 Y114.425 E31.94571
G1 X38.916 Y111.945 E32.02922
G1 X39.245 Y109.414 E32.11411
G1 X39.496 Y106.921 E32.19745
G1 X39.679 Y104.401 E32.28148
G1 X39.791 Y101.871 E32.36571
G1 X39.832 Y99.294 E32.45144
G1 X39.824 Y97.871 E32.49877
G1 X39.656 Y85.539 E32.90897
G1 X39.657 Y84.71 E32.93654
G1 X39.698 Y83.808 E32.96657
G1 X39.829 Y82.843 E32.99896
G1 X40.037 Y81.927 E33.03021
G1 X40.326 Y81.036 E33.06136
G1 X40.693 Y80.171 E33.09261
G1 X41.135 Y79.343 E33.12383
G1 X41.654 Y78.55 E33.15535
G1 X42.526 Y77.488 E33.20106
G1 X43.032 Y76.957 E33.22545
G1 X51.169 Y68.785 E33.60902
G1 X51.788 Y68.181 E33.63778
G1 X52.489 Y67.558 E33.66897
G0 F6000 X52.728 Y67.879
G1 F1200 X53.453 Y67.34 E33.69902
G1 X54.222 Y66.868 E33.72903
G1 X55.031 Y66.465 E33.75909
G1 X55.872 Y66.136 E33.78913
